svgs/thin/star-christmas.svg

<svg xmlns="http://www.w3.org/2000/svg" viewBox="0 0 512 512"><!--! Font Awesome Pro 6.0.0-alpha3 by @fontawesome - https://fontawesome.com License - https://fontawesome.com/license (Commercial License) --><path d="M493.6 232.4l-171.2-42.78l-42.78-171.2C276.8 7.406 267.3 0 256 0s-20.84 7.406-23.62 18.47L189.6 189.6L18.44 232.4C7.406 235.2 0 244.6 0 255.1c0 11.34 7.406 20.86 18.47 23.64l171.1 42.78l42.66 171.2C235 504.6 244.5 512 255.9 512s20.84-7.406 23.62-18.47l42.78-171.1l171.3-42.78C504.6 276.8 512 267.3 512 255.1C512 244.6 504.6 235.2 493.6 232.4zM489.7 264.1l-180.6 45.11l-45.1 180.4C262.1 493.6 259.9 496 255.9 496c-4.016 0-7.123-2.434-8.1-6.307L202.8 309.2L22.37 264.1C18.44 263.1 16 260 16 256c0-4.016 2.434-7.123 6.318-8.102l180.5-45.11l45.11-180.4C248.9 18.44 251.1 16 256 16c4.016 0 7.123 2.432 8.104 6.316l45.11 180.5l180.4 45.1C493.6 248.9 496 251.1 496 256S493.6 263.1 489.7 264.1zM146.3 157.7C147.9 159.2 149.9 160 152 160s4.094-.7813 5.656-2.344c3.125-3.125 3.125-8.188 0-11.31l-80-80c-3.125-3.125-8.188-3.125-11.31 0s-3.125 8.188 0 11.31L146.3 157.7zM360 160c2.062 0 4.094-.7813 5.656-2.344l80-80c3.125-3.125 3.125-8.188 0-11.31s-8.188-3.125-11.31 0l-80 80c-3.125 3.125-3.125 8.188 0 11.31C355.9 159.2 357.9 160 360 160zM365.7 354.3c-3.125-3.125-8.188-3.125-11.31 0s-3.125 8.188 0 11.31l80 80C435.9 447.2 437.9 448 440 448s4.094-.7813 5.656-2.344c3.125-3.125 3.125-8.188 0-11.31L365.7 354.3zM146.3 354.3l-80 80c-3.125 3.125-3.125 8.188 0 11.31C67.91 447.2 69.94 448 72 448s4.094-.7813 5.656-2.344l80-80c3.125-3.125 3.125-8.188 0-11.31S149.5 351.2 146.3 354.3z"/></svg>

<svg xmlns="http://www.w3.org/2000/svg" viewBox="0 0 512 512"><!-- Font Awesome Pro 6.0.0-alpha2 by @fontawesome - https://fontawesome.com License - https://fontawesome.com/license (Commercial License) --><path d="M493.562 232.375L322.406 189.594L279.625 18.438C276.844 7.406 267.344 0 256 0S235.156 7.406 232.375 18.469L189.594 189.594L18.438 232.375C7.406 235.156 0 244.656 0 256S7.406 276.844 18.469 279.625L189.594 322.406L232.25 493.562C235.031 504.594 244.531 512 255.875 512S276.719 504.594 279.5 493.531L322.281 322.406L493.563 279.625C504.594 276.844 512 267.344 512 256S504.594 235.156 493.562 232.375ZM489.686 264.102L318.404 306.883L309.088 309.211L306.76 318.525L263.984 489.629C262.996 493.559 259.889 496 255.875 496C251.859 496 248.752 493.566 247.775 489.693L205.119 318.537L202.795 309.215L193.475 306.885L22.371 264.107C18.441 263.119 16 260.014 16 256C16 251.984 18.434 248.877 22.318 247.898L193.475 205.115L202.787 202.787L205.117 193.475L247.893 22.369C248.881 18.441 251.986 16 256 16C260.016 16 263.123 18.432 264.104 22.316L306.885 193.473L309.213 202.787L318.527 205.115L489.652 247.889C493.568 248.877 496 251.984 496 256S493.568 263.123 489.686 264.102ZM146.344 157.656C147.906 159.219 149.938 160 152 160S156.094 159.219 157.656 157.656C160.781 154.531 160.781 149.469 157.656 146.344L77.656 66.344C74.531 63.219 69.469 63.219 66.344 66.344S63.219 74.531 66.344 77.656L146.344 157.656ZM360 160C362.062 160 364.094 159.219 365.656 157.656L445.656 77.656C448.781 74.531 448.781 69.469 445.656 66.344S437.469 63.219 434.344 66.344L354.344 146.344C351.219 149.469 351.219 154.531 354.344 157.656C355.906 159.219 357.938 160 360 160ZM365.656 354.344C362.531 351.219 357.469 351.219 354.344 354.344S351.219 362.531 354.344 365.656L434.344 445.656C435.906 447.219 437.938 448 440 448S444.094 447.219 445.656 445.656C448.781 442.531 448.781 437.469 445.656 434.344L365.656 354.344ZM146.344 354.344L66.344 434.344C63.219 437.469 63.219 442.531 66.344 445.656C67.906 447.219 69.938 448 72 448S76.094 447.219 77.656 445.656L157.656 365.656C160.781 362.531 160.781 357.469 157.656 354.344S149.469 351.219 146.344 354.344Z"/></svg>
